X:1065
T:Angl-Rul
R:reel
B:Salomon Carlstedts notbok, V\"axj\"o, Karlskrona (1813)
D:H\"o\"ok
O:Sweden
Z:id:hn-reel-1065
M:C|
L:1/8
K:D
defd B2ed | ceag gfef | defd B2ed | cABc d2d2 :|
|: d2fa gfge | abag gfef | d2fa gfgb | a2c2 d2d2 :|

